X:150
T:AIR XXVI. The bonny Boatman.
O:england
B:Joseph Mitchell: "The Highland Fair" (1731)
M:C|
L:1/8
K:C
(EF)| G2 (A/B/c) (AG)(FE)|(FE)(DC)     G3A|(AB)(cd) (e/f/g) (fe)       |(d3e) D2
(EF)| G3   c     (AG)(FE)|(FE)(DC)     G3E| F2 (GA)  G2     (B3/A//B//)|(B3c) C2||
(cB)|(AG)(AB)    (cd)(ec)|(d/e/f) (fe) d3D|(DE) G2  (c>d)   (e/f/g)    | d3e  D2
(EF)| G2 (A/B/c) (AG)(FE)|(FE)(DC)     G3E|(F2  G)A (Gc)    (B/c/d)    | c4   C2|]


